X:1
T:Caledonian March
T:Caledonia
M:4/4
L:1/8
S:Sharon Shannon
R:March
D:Sharon Shannon CD "Out The Gap"
Z:Barney
K:A
DF|:AB AF A2 de|fe fa f2 ed|~B3 d AF ED|DE ED E2 DF|
AB AF A2 de|fe fa f-a ed|B3 d AF EF|
1 D2 DE D2 DF:|2 D2 DE D2 de||
fa af a2 fe|~d3 e f2 de|fd fa ba fa|e2 ef eA de|
fa ab a2 fe|dB de d2 cB|AF dB AF EF|
1 D2 DE D2 de:|2 D2 DE D2 DF||

